Assets/UI/Icons/game-icons.net.svg/icons/white/delapouite/resize.svg

<svg xmlns="http://www.w3.org/2000/svg" viewBox="0 0 512 512"><path fill="#fff" d="M29 30l1 90h36V66h26V30H29zm99 0v36h72V30h-72zm108 0v36h72V30h-72zm108 0v36h72V30h-72zm102 0v78h36V30h-36zm-206 80v36h100.543l-118 118H30v218h218V289.457l118-118V272h36V110H240zm206 34v72h36v-72h-36zM30 156v72h36v-72H30zm416 96v72h36v-72h-36zm0 108v72h36v-72h-36zm-166 86v36h72v-36h-72zm108 0v36h72v-36h-72z"/></svg>

<?xml version="1.0" encoding="utf-8"?>
<svg viewBox="0 0 512 512" xmlns="http://www.w3.org/2000/svg">
  <path fill="#fff" d="M 29 30 L 30 120 L 66 120 L 66 66 L 92 66 L 92 30 L 29 30 Z M 128 30 L 128 66 L 200 66 L 200 30 L 128 30 Z M 236 30 L 236 66 L 308 66 L 308 30 L 236 30 Z M 344 30 L 344 66 L 416 66 L 416 30 L 344 30 Z M 446 30 L 446 108 L 482 108 L 482 30 L 446 30 Z M 240 110 L 240 146 L 340.543 146 L 222.543 264 L 30 264 L 30 482 L 248 482 L 248 289.457 L 366 171.457 L 366 272 L 402 272 L 402 110 L 240 110 Z M 446 144 L 446 216 L 482 216 L 482 144 L 446 144 Z M 30 156 L 30 228 L 66 228 L 66 156 L 30 156 Z M 446 252 L 446 324 L 482 324 L 482 252 L 446 252 Z M 446 360 L 446 432 L 482 432 L 482 360 L 446 360 Z M 280 446 L 280 482 L 352 482 L 352 446 L 280 446 Z M 388 446 L 388 482 L 460 482 L 460 446 L 388 446 Z" transform="matrix(0, 1, -1, 0, 511.5, 0.5)"/>
</svg>
